X: 34943
T: Rocky Mountain
R: hornpipe
M: 4/4
K: Dmajor
|:A,2|A,2 DE FEDE|F2 A2 A2 A2|BABc dBAF|F2 E2 E2 FE|
D2 DE FEDE|F2 A2 A2 B2|BABc dBAA|F2 D2 D2:|
|:(3ABc|d2 (3efg fedd|c2dd B2 A2|BABc dedd|B2 A2 A2 (3ABc|
d (3efg fedd|c2 dd B2 A2|BABc dBAG|F2 D2D2:|

